X: 231487
T: White Cockade
T: Cnota B\'an
S: B.Breathnach: "Ceol Rince na hEireann" II/115 
Z: B.Black
L: 1/8
M: 2/4
R: polka
K: G
g/e/|dB B/A/G/A/|BB Bg/e/|dB B/A/G/A/|BA A>z|
Bz B/A/G/A/|Bd gg/a/|bg e/f/g/e/|dB AG/A/|
dB B/A/G/A/|BB Bg/e/|dB B/A/G/E/|DG AG/A/|
B2 B/A/G/A/|Bd gg/a/|b/g/g/g/ e/f/g/e/|dB (3A/B/A/ ||
G/A/|Bd gg|Bd d2|Bd gg|d/A/A AG/A/|BB/d/ B/A/G/A/|
Bd gg/a/|b/g/g/g/ e/f/g/e/|dB (3A/B/A/ :|
